X:1
T:Melody
T:Melody
T:Brig. Gen. CHARLES G. DAWES
T:Copyright, MCMXVII, by Gamble Hinged Music Co., Chicago, Ill.
T:Copyright, MCMXVII, by Gamble Hinged Music Co., Chicago, Ill.
T:Copyright, MCMXVII, by Gamble Hinged Music Co., Chicago, Ill.
C:Charles G. Dawes
Z:Copyright, MCMXVII, by Gamble Hinged Music Co., Chicago, Ill.
%%score { ( 1 3 ) | 2 }
L:1/8
Q:1/4=92
M:6/8
K:A
V:1 treble nm="Piano" snm="Pno."
V:3 treble 
V:2 bass 
V:1
"^Andante""^Arranged for Piano by Marie Edwards Von Ritter"!pp! z6 | z2 z z (3(c/d/e/(3f/e/d/ | %2
 c2){Bc} (B/G/ F2) (B/G/ | E3-) E (3(C/D/E/(3F/E/D/ | C2) (E/C/ F2) A | c3- c2 (c/d/ | %6
 e2 E F2)"_cresc." (c/d/ | e>f^d/B/ g2) ([eg]/[ea]/ | [eb]>c'b/B/ [Acf]2 [ABg] | %9
 [Ge]3)!pp! !fermata![G,=DF]!p! (3(c/d/e/(3f/e/d/ | c2){Bc} (B/G/ F2) (B/G/ | %11
 E3-) E (3(C/D/E/(3F/E/D/ | C2) (E/C/ F2) A | c3- c2 (c/d/ | e2 E F2) (c/e/ | %15
 g/f/e/c/{Bc}B/A/ F2) (c/d/ | e2 [Ae] [Gf]2 [dec'] |{/c'} [ca]2) z !fermata![CA] z/ || %18
!mp!"_lusingando" ([ce]/[^B^d]/[ce]/ | [CE]>)([Ec][^D^B]/[Ec]/ [ac']>)([ac'][g^b]/[ac']/ | %20
 [g=b]>[fa][^eg]/[fa]/ [=eg]>)([df][d^e]/[df]/ | %21
 [DF]>)([Fd][^Ec]/[Fd]/ [fd']>)([fd'][^ec']/[fd']/ | %22
 [=ec']>)[db]!fermata![ge']/4z/4[df]/ [cf]>([ce][^B^d]/[ce]/ | %23
 [CE]>)([Ec][^D^B]/[Ec]/ [ac']>)"_cresc."([cac'][^Bg^b]/[cac']/ | %24
 [=Bg=b]>[G^eg][Afa]/[Bgb]/ [Afa]>)!p!([fa][eg]/[fa]/ | %25
 [=c=e]>)"_cresc."([Ace][Ace]/[Acf]/ [GBeg]>)[Bg][^A^^f]/[Bg]/ | %26
"_con forza" x/ x/ x/ x/ ^g/4b/4f/4>[AB]/4 [Ge]2!p! e!pp! | !trill(!Te6- | %28
 !trill)!e3{^de} e'2!pp! e' | !trill(!Te'6- | !trill(!Te'3!8va(!{^d''e''} e''3!8va)! | %31
"_l.h." ((!5!G,/B,/"_quasi glissando"D/!1!E/!3!G/!2!B/!12!d/"_r.h."!1!e/!2!g/!3!b/g/e/) | %32
 e'3) z!p! (3(c/d/e/(3f/e/d/ || c2){Bc} (B/G/ F2) (B/G/ | E3-) E (3(C/D/E/(3F/E/D/ | %35
 C2) (E/C/ F2) (A | c3-) c2 (c/d/ | e2 E F2)"_cresc." (c/d/ | e>f^d/B/ g2) x | %39
 [Beb]>c'b/B/!>(! [Acf]2 [ABg]!>)! |{/g} [Ge]3{/!fermata!F} !fermata![G,=DE] (3(c/d/e/(3f/e/d/ | %41
 c2{Bc} (B/G/ F2)) (B/G/ | E3-) E (3(C/D/E/(3F/E/D/ | C2) (E/C/ F2) (A | c3-) c2 (c/d/ | %45
 e2 E F2) (c/e/ | g/f/e/c/{Bc}B/A/ F2) (c/d/ | e2 [Ae] [Gf]2) ([dec'] | %48
{/c'} [ca]2)!ppp! [CA]!8va(! !fermata![c'a']2 z!8va)! |] %49
V:2
 [A,,,A,,]2 (.[E,A,C] [F,A,C]) z E,, | [A,,,A,,]2 (.[E,A,C] [F,A,C]) z E,, | %2
 [A,,,A,,]2 (.[E,A,C] [F,A,C]) z E,, | [A,,,A,,]2 (.[E,A,C] [F,A,C]) z E,, | %4
 [A,,,A,,]2 (.[E,A,C] [F,A,C]) z E,, | [A,,,A,,]2 (.[E,A,C] [F,A,C]) z E,, | %6
 [A,,,A,,]2 (.[E,A,C] [F,A,C]) z [A,E] | [CE]2 [B,F] [E,B,E]2 [CE]/[=CF]/ | %8
 [B,G]B,,B,- B,C/^^C/^D/B,/- | [E,B,E]2 B,,- !fermata![E,,B,,] z E,, | %10
 [A,,,A,,]2 (.[E,A,C] [F,A,C]) z E,, | [A,,,A,,]2 (.[E,A,C] [F,A,C]) z E,, | %12
 [A,,,A,,]2 (.[E,A,C] [F,A,C]) z E,, | [A,,,A,,]2 (.[E,A,C] [F,A,C]) z E,, | %14
 [A,,,A,,]2 (.[E,A,C] [F,A,C]) z E,, | [A,,,A,,]2 (.[E,A,C] [F,A,C]) z E,, | %16
 [E,,,E,,]2 [CEF] [B,DF]2 !arpeggio![E,DG] | [A,EA]2 [A,,E,] !fermata!A,,, z/ || z/ z | %19
 [A,,,A,,][E,A,C] z [E,,,E,,][E,A,C] z | [A,,,A,,][E,A,C][E,,,E,,] [B,,,B,,][E,G,D] z | %21
 [E,,,E,,][E,G,B,] z [B,,,B,,][E,G,D] z | [E,,,E,,][E,G,D] !fermata!z [A,,,A,,][E,A,C] z | %23
 [A,,,A,,][E,A,C] z [E,,,E,,][E,A,C] z | [G,,,G,,][^E,B,C][C,,C,] [F,,,F,,][F,A,C] z | %25
 [A,,,A,,][E,A,=C] z [B,,,B,,][G,B,E] z | %26
[K:treble] [B,E=G^A]/[B,EGA]/[B,F=A]/[B,FA]/[B,^D^G]/[A,CDF]/4[K:bass]B,,/4 [E,B,]E,, z | %27
[K:treble] z/ ([EG]/[FA][Ac] [GB]2) ([EG] | [Fd]>[Ec][Fd]/[^^Fc]/ [GB]2) z | %29
 z/ ([eg]/[fa][ac'] [gb]2) ([eg] | [fd']>)[ec'][fd']/[^^fc']/ [gb]2 z | z6 | z6 || %33
[K:bass] [A,,,A,,]2 (.[E,A,C] [F,A,C]) z E,, | [A,,,A,,]2 (.[E,A,C] [F,A,C]) z E,, | %35
 [A,,,A,,]2 (.[E,A,C] [F,A,C]) z E,, | [A,,,A,,]2 (.[E,A,C] [F,A,C]) z E,, | %37
 [A,,,A,,]2 (.[E,A,C] [F,A,C]) z [A,E] | [CE]2 [B,F] [E,B,E]2 [CE]/[=CF]/ | %39
 [B,G]B,,B,- B,C/^^C/^D/B,/ | [E,B,E]2!pp! B,,- !fermata![E,,B,,] z z | %41
 [A,,,A,,]2 (.[E,A,C] [F,A,C]) z E,, | [A,,,A,,]2 (.[E,A,C] [F,A,C]) z E,, | %43
 [A,,,A,,]2 (.[E,A,C] [F,A,C]) z E,, | [A,,,A,,]2 (.[E,A,C] [F,A,C]) z E,, | %45
 [A,,,A,,]2 (.[E,A,C] [F,A,C]) z E,, | [A,,,A,,]2 (.[E,A,C] [F,A,C]) z E,,- | %47
 [E,,,E,,]2 [CEF] [B,DF]2 !arpeggio![E,DG] | [A,EA]2 [A,,E,][K:treble] !fermata![Ae]2 z |] %49
V:3
 x6 | x6 | x6 | x6 | x6 | x6 | x4 x A | A2 A G2 x | x6 | x6 | x6 | x6 | x6 | x6 | x6 | x6 | x6 | %17
 x9/2 || x3/2 | x6 | x6 | x6 | x6 | x6 | x6 | x6 | %26
 [e=g^d']/[egc']/[^dfd']/[dfc']/[Bd]/[Ac]3/8 z/8 x x2 | x6 | x6 | x6 | x3!8va(! x3!8va)! | x6 | %32
 x6 || x6 | x6 | x6 | x6 | x4 x A | A2 A G2 [Geg]/[Aea]/ | x6 | x6 | x6 | x6 | x6 | x6 | x6 | x6 | %47
 x6 | x3!8va(! x3!8va)! |] %49

